public/img/icon/academ/logo.svg

<svg width="150" height="35" viewBox="0 0 150 35" fill="none" xmlns="http://www.w3.org/2000/svg">
<path d="M39.0135 10.7582V34.235H48.9674C60.4602 34.1393 66.1825 25.8197 66.1825 17.5C66.1825 9.18033 60.4602 0.860656 48.9674 0.765026H39.0135V6.12022H44.7839L39.0135 10.7582ZM48.727 6.12022C63.9705 6.12022 63.9224 28.832 48.727 28.832H44.7839V6.12022H48.727Z" fill="#D5BFA8"/>
<path d="M88.2405 0C83.1914 0 78.1903 1.96038 74.8723 5.88115L78.8636 10.0888C81.1236 7.21995 84.6821 5.78552 88.2405 5.78552C94.059 5.78552 99.9256 9.65847 99.9256 17.5C99.9256 25.3415 94.059 29.2145 88.2405 29.2145C82.3739 29.2145 76.5073 25.3415 76.5073 17.5C76.5073 14.7746 77.2286 12.5273 78.4308 10.7582H71.9871C71.2658 12.7186 70.8811 14.9658 70.8811 17.5C70.8811 29.1667 79.5368 35 88.2405 35C96.8961 35 105.552 29.1667 105.552 17.5C105.552 5.83333 96.8961 0 88.2405 0Z" fill="#D5BFA8"/>
<path d="M110.569 34.235H116.243L119.225 15.2527L129.323 34.235H131.246L141.345 15.1093L144.326 34.235H150L144.951 0.765026H143.028L130.285 24.8156L117.542 0.765026H111.531L117.542 12.097H113.935L110.569 34.235Z" fill="#D5BFA8"/>
<path fill-rule="evenodd" clip-rule="evenodd" d="M0 34.0278H25.4961C30.6261 34.0278 34.7848 29.8927 34.7848 24.7917C34.7848 21.8279 33.3808 19.19 31.198 17.5C33.3808 15.81 34.7848 13.1722 34.7848 10.2083C34.7848 5.10737 30.6261 0.972222 25.4961 0.972222H19.1935L16.4354 5.72222H25.4961C28.0283 5.72222 30.0348 7.75615 30.0348 10.2083C30.0348 12.6605 28.0283 14.6944 25.4961 14.6944H11.2258L7.9677 20.3056H25.4961C28.0283 20.3056 30.0348 22.3395 30.0348 24.7917C30.0348 27.2439 28.0283 29.2778 25.4961 29.2778H2.75805L0 34.0278Z" fill="#00212D"/>
</svg>

<svg width="150" height="35" fill="none" xmlns="http://www.w3.org/2000/svg"><path d="M39.014 10.758v23.477h9.953C60.46 34.139 66.183 25.82 66.183 17.5S60.46.86 48.967.765h-9.953V6.12h5.77l-5.77 4.638zm9.713-4.638c15.244 0 15.195 22.712 0 22.712h-3.943V6.12h3.943zM88.24 0c-5.049 0-10.05 1.96-13.368 5.881l3.992 4.208c2.26-2.87 5.818-4.303 9.376-4.303 5.819 0 11.686 3.872 11.686 11.714 0 7.841-5.867 11.715-11.686 11.715-5.866 0-11.733-3.873-11.733-11.715 0-2.725.722-4.973 1.924-6.742h-6.444c-.721 1.96-1.106 4.208-1.106 6.742 0 11.667 8.656 17.5 17.36 17.5 8.655 0 17.311-5.833 17.311-17.5S96.896 0 88.24 0zM110.569 34.235h5.674l2.982-18.982 10.098 18.982h1.923l10.099-19.126 2.981 19.126H150L144.951.765h-1.923l-12.743 24.05L117.542.766h-6.011l6.011 11.332h-3.607l-3.366 22.138z" fill="#D5BFA8"/><path fill-rule="evenodd" clip-rule="evenodd" d="M0 34.028h25.496c5.13 0 9.289-4.135 9.289-9.236a9.202 9.202 0 0 0-3.587-7.292 9.202 9.202 0 0 0 3.587-7.292c0-5.1-4.159-9.236-9.289-9.236h-6.302l-2.759 4.75h9.061c2.532 0 4.539 2.034 4.539 4.486 0 2.453-2.007 4.486-4.539 4.486h-14.27l-3.258 5.612h17.528c2.532 0 4.539 2.034 4.539 4.486s-2.007 4.486-4.539 4.486H2.758L0 34.028z" fill="#00212D"/></svg>
